X:1
T: Red House of Cardiff
N:
C:Tune is "Ty Coch Caerydd"
S:
A:
O:
R:
M:4/4
K:G
I:speed 200
%W: A1
% voice 1 (1 lines, 41 notes)
K:G
M:4/4
L:1/16
B2 A2 |G4 g4 g2 f2 e4 |d8 c4 B4 |c4 e4 e2 d2 c4 |B2 c2 B2 A2 G4 B2 A2 |G4 g4 g2 f2 e4 |d8 c4 B4 |B4 G4 F2 G2 A2 F2 |G4 B4 G4 B2 A2 |
%W: A2
% voice 1 (1 lines, 39 notes)
G4 g4 g2 f2 e4 |d8 c4 B4 |c4 e4 e2 d2 c4 |B2 c2 B2 A2 G4 B2 A2 |G4 g4 g2 f2 e4 |d8 c4 B4 |B4 G4 F2 G2 A2 F2 |G4 B4 G4 B2 c2 |
%W: B1
% voice 1 (1 lines, 53 notes)
d2 c2 B2 A2 G2 A2 B2 c2 |d4 d4 d2 c2 B2 A2 |c2 B2 A2 G2 F2 G2 A2 B2 |c4 c4 c2 B2 A2 G2 |d2 c2 B2 A2 G2 A2 B2 c2 |d4 d4 d2 c2 B2 A2 |B4 G4 F2 G2 A2 F2 |G4 B4 G4 B2 c2 |
%W: B2
% voice 1 (1 lines, 52 notes)
d2 c2 B2 A2 G2 A2 B2 c2 |d4 d4 d2 c2 B2 A2 |c2 B2 A2 G2 F2 G2 A2 B2 |c4 c4 c2 B2 A2 G2 |d2 c2 B2 A2 G2 A2 B2 c2 |d4 d4 d2 c2 B2 A2 |B4 G4 F2 G2 A2 F2 |G4 B4 G4 G4 |
%W: C1
% voice 1 (1 lines, 40 notes)
A2 B2 c4 c4 c4 |A2 B2 c4 c4 c4 |B2 c2 d4 d4 d4 |B2 c2 d4 d4 d4 |A2 B2 c4 c4 c4 |A2 B2 c4 c4 c4 |B4 G4 F2 G2 A2 F2 |G4 B4 G4 G4 |
%W: C2
% voice 1 (1 lines, 39 notes)
A2 B2 c4 c4 c4 |A2 B2 c4 c4 c4 |B2 c2 d4 d4 d4 |B2 c2 d4 d4 d4 |A2 B2 c4 c4 c4 |A2 B2 c4 c4 c4 |B4 G4 F2 G2 A2 F2 |G4 B4 G4 ||
